packages/icons/svg/Outline/download.svg

<svg fill="none" height="24" viewBox="0 0 24 24" width="24" xmlns="http://www.w3.org/2000/svg"><path clip-rule="evenodd" d="m11.0028 12.076c-.0019-.0251-.0028-.0504-.0028-.076v-8c0-.552.447-1 1-1s1 .448 1 1v7.9999l2.4-1.7998c.442-.333 1.069-.242 1.4.2.332.442.242 1.069-.2 1.4l-4 3c-.177.133-.389.2-.6.2-.201 0-.402-.061-.575-.182l-4.00001-2.814c-.452-.318-.561-.942-.243-1.393.318-.452.941-.561 1.393-.243zm-5.0028 4.9239v1.0001h12v-1.0001c0-.55.45-1 1-1s1 .45 1 1v2c0 .0688-.007.136-.0204.201-.0175.0849-.0459.166-.0835.2417-.1641.3296-.5048.5574-.8961.5574h-14c-.55 0-1-.45-1-1v-.0001-2c0-.55.45-1 1-1s1 .45 1 1z" fill="#6b7280" fill-rule="evenodd"/></svg>

<svg width="24" height="24" viewBox="0 0 24 24" fill="none" xmlns="http://www.w3.org/2000/svg">
<g id="Icon/Outline/download">
<path id="Mask" fill-rule="evenodd" clip-rule="evenodd" d="M11.0028 12.0759C11.001 12.0508 11 12.0255 11 12V4C11 3.448 11.447 3 12 3C12.553 3 13 3.448 13 4V11.9998L15.4 10.2C15.842 9.867 16.469 9.958 16.8 10.4C17.132 10.842 17.042 11.469 16.6 11.8L12.6 14.8C12.423 14.933 12.211 15 12 15C11.799 15 11.598 14.939 11.425 14.818L7.425 12.004C6.973 11.686 6.864 11.062 7.182 10.611C7.5 10.159 8.123 10.05 8.575 10.368L11.0028 12.0759ZM6 17V18H18V17C18 16.45 18.45 16 19 16C19.55 16 20 16.45 20 17V19C20 19.55 19.55 20 19 20H5C4.45 20 4 19.55 4 19V17C4 16.45 4.45 16 5 16C5.55 16 6 16.45 6 17Z" fill="#000000"/>
</g>
</svg>
